X: 34530
T: Ril Johnny Phadraig Pheter
R: reel
M: 4/4
K: Gmajor
G2Bd gbag|egdg edBA|G2Bd gbd'b|ae~e2 ac'ba|
gbag edBA|GE~E2 DEGD|EGce dBgd|1 ec'ba gedB:|2 ec'ba g2ag||
edeg ac'ba|gedB degb|abgb agea|ge~e2 dbag|
edeg ac'ba|gedB GBAG|EGce dBgd|1 ec'ba g2ag:|2 ec'ba gedB||

